X:151
T: Der Sngerbund (2-43), S. 116f
N: K1126
O: Luxemburg
S: KINTZELE, Guillaume: An der Ucht, Bd. 2, Luxemburg 1927]
N: in der Quelle mit einer 2. Stimme versehen
R: Sngerlied?, ???]
M: 4/4
L: 1/16
K: F
C2D2E2 | F6C2F3GA3B | c8z2
c2d2c2 | B6B2A2F2c3A | G3AG4z2
C2D2E2 | F6C2F3GA3=B | c8z2
G2G2G2 | e4c4G3GA3=B | d4c4z2
c2d2c2 | B6B2A3Fc3A | G8z2
c2d2c2 | B6B2A2F2c3A | G3AG4z2
C2A2G2 | F2G2A3GF3Ad3c | c6B2G2
c2c2B2 | A6A2G3FG3A | F8z2
C2A2G2 | F2G2A3GF3Ad3c | c6B2G2
c2c2B2 | A6A2G3FG3A | F8z2

@@@ Tune index: 8205
